X: 136010
T: LARRY O'GAFF
Q: "Irish Jig."
R: Jig.
%R: jig
B: James Kerr "Merry Melodies" v.1 p.36 s.0 #10
Z: 2016 John Chambers <jc:trillian.mit.edu>
M: 6/8
L: 1/8
K: G
v((3d/e/f/ |\
g2)vG BAG | ded dBG | cec BcB | ABc def |\
gGG BAG | ded dBG | cec BdB | AGA G2 H:|
ud |\
def gfg | aba afd | dfg aga | bgg ug2 ud |\
def gfe | ded dBG | cec BdB | ABc d"_D.C."ef |]

%%sep 1 1 500
%%sep 1 1 500

